svg/icon/sub.svg

<svg xmlns="http://www.w3.org/2000/svg" xmlns:xlink="http://www.w3.org/1999/xlink" width="32" height="32" viewBox="0 0 32 32"><defs><linearGradient id="sub-c" x1="50%" x2="50%" y1="0%" y2="100%"><stop offset="0%" stop-color="#FFF" stop-opacity=".5"/><stop offset="100%" stop-opacity=".5"/></linearGradient><circle id="sub-b" cx="16" cy="15" r="15"/><filter id="sub-a" width="111.7%" height="111.7%" x="-5.8%" y="-4.2%" filterUnits="objectBoundingBox"><feOffset dy=".5" in="SourceAlpha" result="shadowOffsetOuter1"/><feGaussianBlur in="shadowOffsetOuter1" result="shadowBlurOuter1" stdDeviation=".5"/><feComposite in="shadowBlurOuter1" in2="SourceAlpha" operator="out" result="shadowBlurOuter1"/><feColorMatrix in="shadowBlurOuter1" values="0 0 0 0 0 0 0 0 0 0 0 0 0 0 0 0 0 0 0.199473505 0"/></filter><path id="sub-e" d="M12.1168,4.3136 C12.1598773,4.28052583 12.2128987,4.26304004 12.2672,4.264 C12.321392,4.26374559 12.3741909,4.28115798 12.4176,4.3136 L13.6736,5.256 C13.7450531,5.30973274 13.7824125,5.39750363 13.7716051,5.48625022 C13.7607977,5.57499682 13.7034656,5.65123639 13.6212051,5.68625023 C13.5389446,5.72126407 13.4442531,5.70973275 13.3728,5.656 L12.2672,4.8288 L8.6688,7.5264 L24.4704,19.3792 C24.5338551,19.4267913 24.5712,19.5014812 24.5712,19.5808 C24.5712,19.6601188 24.5338551,19.7348087 24.4704,19.7824 L23.3088,20.6528 C23.2653909,20.685242 23.212592,20.7026544 23.1584,20.7024 C23.0504334,20.7025382 22.9545194,20.6335004 22.9203773,20.5310742 C22.8862352,20.4286481 22.9215438,20.3158694 23.008,20.2512 L23.9024,19.5808 L8.1008,7.728 C8.03681882,7.68084965 7.99933157,7.60587515 8,7.5264 C8.0008263,7.44816711 8.0381024,7.37479828 8.1008,7.328 L12.1168,4.3136 Z M16.1344,4.3136 C16.2224508,4.24591734 16.3448304,4.2452629 16.4336,4.312 L24.4688,10.3392 C24.5553789,10.403123 24.5903758,10.515891 24.5552,10.6176 C24.5221825,10.7205227 24.4264891,10.790353 24.3184,10.7904 L20.3008,10.7904 C20.2464883,10.7898156 20.1937873,10.7718749 20.1504,10.7392 L14.8784,6.7856 C14.8066611,6.73186726 14.7690376,6.64394389 14.7797021,6.55494978 C14.7903665,6.46595567 14.8476987,6.38941114 14.9301021,6.35414977 C15.0125055,6.31888841 15.1074611,6.33026725 15.1792,6.384 L20.3856,10.288 L23.5648,10.288 L16.2848,4.8288 L11.2448,8.608 C11.1339012,8.69106363 10.9766636,8.66849878 10.8936,8.5576 C10.8105364,8.44670122 10.8331012,8.28946363 10.944,8.2064 L16.1344,4.3136 Z M9.2096,9.5088 C9.25229114,9.47500259 9.30557885,9.45742898 9.36,9.4592 C9.43877323,9.45962676 9.51279666,9.49693457 9.56,9.56 C9.60026772,9.61290528 9.61768519,9.67972666 9.60836675,9.74555694 C9.59904831,9.81138721 9.56376925,9.87074926 9.5104,9.9104 L8.6688,10.5408 L24.4704,22.3952 C24.5340955,22.4425903 24.5715051,22.5174095 24.5712,22.5968 C24.5714858,22.675743 24.5340257,22.7500684 24.4704,22.7968 L20.4528,25.8096 C20.4095074,25.8422651 20.356631,25.859703 20.3024,25.8592 C20.2482483,25.8592018 20.195527,25.841815 20.152,25.8096 L18.9904,24.9376 C18.9186611,24.8835814 18.8811901,24.795394 18.8921021,24.706257 C18.9030141,24.6171199 18.9606512,24.5405754 19.0433021,24.505457 C19.125953,24.4703385 19.2210611,24.4819814 19.2928,24.536 L20.3024,25.2928 L23.9024,22.5936 L8.0992,10.7408 C8.03655981,10.6934112 7.99982341,10.6193459 8,10.5408 C7.99979537,10.4618018 8.03648553,10.387238 8.0992,10.3392 L9.2096,9.5088 Z M8.2512,19.328 L8.2512,19.3296 L12.2656,19.3296 C12.3201608,19.328665 12.3733425,19.3467694 12.416,19.3808 L17.632,23.2912 C17.7428988,23.3742636 17.7654636,23.5315012 17.6824,23.6424 C17.5993364,23.7532988 17.4420988,23.7758636 17.3312,23.6928 L12.1856,19.832 L9.0048,19.832 L16.2864,25.2928 L21.3152,21.52 C21.4260988,21.4364946 21.5836945,21.4587012 21.6672,21.5696 C21.7507054,21.6804988 21.7284988,21.8380945 21.6176,21.9216 L16.4368,25.8064 C16.3933909,25.838842 16.340592,25.8562544 16.2864,25.856 C16.232169,25.856503 16.1792926,25.8390651 16.136,25.8064 L8.0992,19.7808 C8.01387407,19.7145619 7.97930559,19.6018943 8.0128,19.4992 C8.04723928,19.3968463 8.14320772,19.3279294 8.2512,19.328 Z"/><filter id="sub-d" width="121.1%" height="116.2%" x="-10.6%" y="-5.8%" filterUnits="objectBoundingBox"><feOffset dy=".5" in="SourceAlpha" result="shadowOffsetOuter1"/><feGaussianBlur in="shadowOffsetOuter1" result="shadowBlurOuter1" stdDeviation=".5"/><feColorMatrix in="shadowBlurOuter1" values="0 0 0 0 0 0 0 0 0 0 0 0 0 0 0 0 0 0 0.204257246 0"/></filter></defs><g fill="none" fill-rule="evenodd"><g fill-rule="nonzero"><use fill="#000" filter="url(#sub-a)" xlink:href="#sub-b"/><use fill="#E53431" fill-rule="evenodd" xlink:href="#sub-b"/><use fill="url(#sub-c)" fill-rule="evenodd" style="mix-blend-mode:soft-light" xlink:href="#sub-b"/><circle cx="16" cy="15" r="14.5" stroke="#000" stroke-opacity=".097"/></g><g fill-rule="nonzero"><use fill="#000" filter="url(#sub-d)" xlink:href="#sub-e"/><use fill="#FFF" fill-rule="evenodd" xlink:href="#sub-e"/></g></g></svg>

<svg xmlns="http://www.w3.org/2000/svg" xmlns:xlink="http://www.w3.org/1999/xlink" width="32" height="32" viewBox="0 0 32 32"><defs><linearGradient id="c" x1="50%" x2="50%" y1="0%" y2="100%"><stop offset="0%" stop-color="#FFF" stop-opacity=".5"/><stop offset="100%" stop-opacity=".5"/></linearGradient><circle id="b" cx="16" cy="15" r="15"/><filter id="a" width="111.7%" height="111.7%" x="-5.8%" y="-4.2%" filterUnits="objectBoundingBox"><feOffset dy=".5" in="SourceAlpha" result="shadowOffsetOuter1"/><feGaussianBlur in="shadowOffsetOuter1" result="shadowBlurOuter1" stdDeviation=".5"/><feComposite in="shadowBlurOuter1" in2="SourceAlpha" operator="out" result="shadowBlurOuter1"/><feColorMatrix in="shadowBlurOuter1" values="0 0 0 0 0 0 0 0 0 0 0 0 0 0 0 0 0 0 0.199473505 0"/></filter><path id="e" d="M12.117 4.314a.24.24 0 0 1 .15-.05.25.25 0 0 1 .15.05l1.257.942a.25.25 0 1 1-.301.4l-1.106-.827L8.67 7.526l15.8 11.854a.252.252 0 0 1 0 .403l-1.161.87a.25.25 0 0 1-.3-.402l.893-.67L8.101 7.729a.248.248 0 0 1 0-.4l4.016-3.014zm4.017 0a.247.247 0 0 1 .3-.002l8.035 6.027a.246.246 0 0 1 .086.279.249.249 0 0 1-.237.172h-4.017a.255.255 0 0 1-.15-.05l-5.273-3.954a.25.25 0 1 1 .301-.402l5.207 3.904h3.179l-7.28-5.46-5.04 3.78a.25.25 0 1 1-.301-.402l5.19-3.892zM9.21 9.509a.252.252 0 0 1 .3.402l-.841.63L24.47 22.395a.25.25 0 0 1 0 .402l-4.017 3.013a.253.253 0 0 1-.3 0l-1.163-.872a.251.251 0 0 1 .303-.402l1.01.757 3.6-2.7L8.098 10.742a.253.253 0 0 1 0-.402l1.11-.83zm-.959 9.819v.002h4.015a.24.24 0 0 1 .15.05l5.216 3.911a.25.25 0 1 1-.3.402l-5.146-3.861H9.005l7.281 5.46 5.03-3.772a.251.251 0 0 1 .302.402l-5.181 3.884a.25.25 0 0 1-.15.05.246.246 0 0 1-.151-.05l-8.037-6.025a.251.251 0 1 1 .152-.453z"/><filter id="d" width="121.1%" height="116.2%" x="-10.6%" y="-5.8%" filterUnits="objectBoundingBox"><feOffset dy=".5" in="SourceAlpha" result="shadowOffsetOuter1"/><feGaussianBlur in="shadowOffsetOuter1" result="shadowBlurOuter1" stdDeviation=".5"/><feColorMatrix in="shadowBlurOuter1" values="0 0 0 0 0 0 0 0 0 0 0 0 0 0 0 0 0 0 0.204257246 0"/></filter></defs><g fill="none"><use fill="#000" filter="url(#a)" xlink:href="#b"/><use fill="#E53431" fill-rule="evenodd" xlink:href="#b"/><use fill="url(#c)" fill-rule="evenodd" style="mix-blend-mode:soft-light" xlink:href="#b"/><circle cx="16" cy="15" r="14.5" stroke="#000" stroke-opacity=".097"/><use fill="#000" filter="url(#d)" xlink:href="#e"/><use fill="#FFF" fill-rule="evenodd" xlink:href="#e"/></g></svg>
